X: 38468
T: Steam Train, The
R: hornpipe
M: 4/4
K: Gmajor
(3DEF|GBAG ADFA|Ggfe dcBd|ecdB cABG|AGFE DE (3FED|
GBAG ADFA|Ggfe dcBd|egde cdBc|AF (3DEF G2 (3def|
gbag adgf|edce dGBd|ecdB cABG|agfe de (3 fed|
gbag fdgf|edce dGBd|(3edc (3dcB (3cBA (3BAG|AF (3DEF G2z2|

